src/64x64/places/folder-gruvbox-material-red-pcloud.svg

<svg xmlns="http://www.w3.org/2000/svg" width="64" height="64" version="1">
 <rect style="opacity:0.2" width="56" height="36" x="4" y="22" rx="2.8" ry="2.8"/>
 <path style="fill:#c14a4a" d="M 4,46.2 C 4,47.751 5.2488,49 6.8,49 H 57.2 C 58.751,49 60,47.751 60,46.2 V 15.8 C 60,14.249 58.751,13 57.2,13 H 32 C 27.8,13 26.4,7 22.2,7 H 6.8 C 5.2488,7 4,8.2488 4,9.8"/>
 <rect style="opacity:0.2" width="56" height="36" x="4" y="20" rx="2.8" ry="2.8"/>
 <rect style="fill:#f0ddc3" width="48" height="22" x="8" y="16" rx="2.8" ry="2.8"/>
 <rect style="fill:#ea6962" width="56" height="36" x="4" y="21" rx="2.8" ry="2.8"/>
 <path style="opacity:0.1;fill:#f0ddc3" d="M 6.8008,7 C 5.2496,7 4,8.2496 4,9.8008 V 10.801 C 4,9.2496 5.2496,8 6.8008,8 H 22.199 C 26.399,8 27.8,14 32,14 H 57.199 C 58.75,14 60,15.25 60,16.801 V 15.801 C 60,14.25 58.75,13 57.199,13 H 32 C 27.8,13 26.399,7 22.199,7 Z"/>
 <path style="fill:#543937" d="M 32.5 28 A 10.214286 10.214286 0 0 0 23.056641 34.333984 A 7.8571429 7.8571429 0 0 0 16 42.142578 A 7.8571429 7.8571429 0 0 0 23.857422 50 L 42.322266 50 C 45.142862 50 47.427734 47.713175 47.427734 44.892578 C 47.427734 42.96447 46.348622 41.304758 44.771484 40.435547 A 4.7142857 4.7142857 0 0 0 45.857422 37.427734 A 4.7142857 4.7142857 0 0 0 41.142578 32.714844 A 4.7142857 4.7142857 0 0 0 41.105469 32.714844 A 10.214286 10.214286 0 0 0 32.5 28 z M 33 31 A 6.9999991 6.9999991 0 0 1 40 38 A 6.9999991 6.9999991 0 0 1 33 45 A 6.9999991 6.9999991 0 0 1 26 38 A 6.9999991 6.9999991 0 0 1 33 31 z M 33 33 A 5 5 0 0 0 30.009766 34 L 32 34 L 33.529297 34 C 34.999297 34 36 34.490309 36 36.357422 C 36 38.533177 34.999297 39 33.529297 39 L 32 39 L 32 42 L 30.009766 42 A 5 5 0 0 0 33 43 A 5 5 0 0 0 38 38 A 5 5 0 0 0 33 33 z M 30 34.007812 A 5 5 0 0 0 28 38 A 5 5 0 0 0 30 41.992188 L 30 38.714844 L 30 34.007812 z M 32 36 L 32 37 L 33 37 C 33.587821 37 34.000002 36.999976 34 36.511719 C 34.000002 35.999976 33.639263 36 33 36 L 32 36 z"/>
</svg>

<?xml version="1.0" encoding="UTF-8"?>
<svg width="64" height="64" version="1" xmlns="http://www.w3.org/2000/svg">
 <rect x="4" y="22" width="56" height="36" rx="2.8" ry="2.8" opacity=".2"/>
 <path d="m4 46.2c0 1.551 1.2488 2.8 2.8 2.8h50.4c1.551 0 2.8-1.249 2.8-2.8v-30.4c0-1.551-1.249-2.8-2.8-2.8h-25.2c-4.2 0-5.6-6-9.8-6h-15.4c-1.5512 0-2.8 1.2488-2.8 2.8" fill="#c14a4a"/>
 <rect x="4" y="20" width="56" height="36" rx="2.8" ry="2.8" opacity=".2"/>
 <rect x="8" y="16" width="48" height="22" rx="2.8" ry="2.8" fill="#f0ddc3"/>
 <rect x="4" y="21" width="56" height="36" rx="2.8" ry="2.8" fill="#ea6962"/>
 <path d="m6.8008 7c-1.5512 0-2.8008 1.2496-2.8008 2.8008v1.0002c0-1.5514 1.2496-2.801 2.8008-2.801h15.398c4.2 0 5.601 6 9.801 6h25.199c1.551 0 2.801 1.25 2.801 2.801v-1c0-1.551-1.25-2.801-2.801-2.801h-25.199c-4.2 0-5.601-6-9.801-6z" fill="#f0ddc3" opacity=".1"/>
 <path d="m32.5 28a10.214 10.214 0 0 0-9.4434 6.334 7.8571 7.8571 0 0 0-7.0566 7.8086 7.8571 7.8571 0 0 0 7.8574 7.8574h18.465c2.8206 0 5.1055-2.2868 5.1055-5.1074 0-1.9281-1.0791-3.5878-2.6562-4.457a4.7143 4.7143 0 0 0 1.0859-3.0078 4.7143 4.7143 0 0 0-4.7148-4.7129 4.7143 4.7143 0 0 0-0.037109 0 10.214 10.214 0 0 0-8.6055-4.7148zm0.5 3a7 7 0 0 1 7 7 7 7 0 0 1-7 7 7 7 0 0 1-7-7 7 7 0 0 1 7-7zm0 2a5 5 0 0 0-2.9902 1h1.9902 1.5293c1.47 0 2.4707 0.49031 2.4707 2.3574 0 2.1758-1.0007 2.6426-2.4707 2.6426h-1.5293v3h-1.9902a5 5 0 0 0 2.9902 1 5 5 0 0 0 5-5 5 5 0 0 0-5-5zm-3 1.0078a5 5 0 0 0-2 3.9922 5 5 0 0 0 2 3.9922v-3.2773-4.707zm2 1.9922v1h1c0.58782 0 1-2.4e-5 1-0.48828 2e-6 -0.51174-0.36074-0.51172-1-0.51172h-1z" fill="#543937"/>
</svg>
